X:1
T:Fountains of Rome
T:Ottorino Respighi Engraved by R. L. Roy
T:Excerpt 1 Movement III: 4 measures before [11] to [16] 
T:Trombone 3
T:www.brassexcerpts.com This work is made available under the Creative Commons CC0 1.0 Universal Public Domain Dedication. You can copy, modify, distribute and perform the work, even for commercial purposes, all without asking permission.
Z:www.brassexcerpts.com
Z:This work is made available under the Creative Commons CC0 1.0 Universal Public Domain Dedication.
Z:You can copy, modify, distribute and perform the work, even for commercial purposes, all without asking permission.
L:1/8
Q:1/4=136
M:3/4
K:C
V:1 bass nm="Piano" snm="Pno."
V:1
!p!"_cresc." (E,6 | _B,,2 =B,,2 C,2 | _D,2) z2 z2 | z6 | z2 z2!fff! !^!B,,2 || %5
[K:E]"^11"[Q:1/4=142]"^Allegro vivace" !^!E,4 F,2 | G,>B,, C,2 E,2 | F,4 z2 | z2 z2!fff! B,,2 | %9
 E,,4 B,,2 | E,4 B,,2 | E,,4 B,,2 | E,4 B,,2 | C,4 E,2 | G,4 E,2 | E,4 B,2 | G,4 G,,2 | E,,4 B,,2 | %18
 E,4 B,,2 |"^12" !>!E,,4 !>!F,,2 | =G,,>A,, !>!=C,2 !>!E,2 | =G,,3 .A,, !^!E,2- | %22
 E,!>!=D,!>!=C,!>!A,, (3!>!=G,!>!E,!>!D, | _D,>_E, D,2 =F,,2 | !^!_D,4 =C,<_B,, | !^!=F,4 _D,2 | %26
 !>!=C,/!>!_B,,/!>!=F,,/!>!B,,/- B,,!>!F,, !>!_D,2 | =A,,4 =B,,2 | ^C,>^D, F,2 G,,2 | %29
 A,,3 =C, !^!=F,2- | =F,!>!=D, (3!>!=C,!>!A,,!>!F, !>!=D,/C,/A,,/=F,,/ |"^13" E,,4 ^F,,2 | %32
 G,,>B,, D,2 E,2 | F,,>G,, F,,2 C,2 | !^!A,4 G,<F, | E,,4 F,,2 | G,,>B,, D,2 E,2 | %37
 F,,>G,, F,,2 C,2 | !^!A,4 G,<F, | E,, z G,,2 E,2 | z2 z2 !>!G,<F, | E,,>F,, G,,2 E,2 | %42
 F,,2 A,,2 G,<F, || %43
[K:Bb]"^14"[Q:3/4=60]!ff!"^Più vivace\n(In uno)""_(Ritmo di 3 battute)" E,4 E,2 | F,>B, B,2 z2 | %45
 z6 |!ff! B,,4 C,2 | D,>F, G, z z2 | z6 | z6 | z2 !^!F,4 | z2 !^!D,4 |"_più"!f! E,4 E,2 | %53
 F,>B, B,2 z2 | z6 | B,,>C, D,2 F,2 | G,4 A,2 | B, z z2 D,2 | C,4 E,2 | C,4 _A,2 | C,4 C2 | z6 | %62
 z6 | B,,>C, D,2 =E,2 | G,4 A,2 | B,G,F,=E,D,C, | B,,A,,G,,F,,=E,,D,, || %67
"^15"!fff!"_(Ritmo di 4 battute)" !^!_D,,6- | D,,6- | D,,6- | D,,6 | _D,,>E,, F,,2 G,,2 | %72
 B,,>C, _D,2 E,2 | _D,>E, F,2 G,2 | B,>C _D2 E2 ||[K:D][M:2/2][Q:1/4=106]!fff!"^Largamente" =D,8 | %76
 F,,8- | F,,8- | F,,8- | F,,8- | F,, z z2 z2!fff! D,,>E,, | D,,4- D,,7/2 B,,/ | A,,4- A,,2 D,>E, | %83
"_dim." A,,8- | A,,6 A,,>B,, | A,,4- A,,7/2 E,/ | D,6 z2 | z8 | z8 | z8 | z8 | %91
"^16"!mf!"_dim." (A,,8 | D,8-) | D,8 |] %94

